docs/img/svg/pencil.svg

<svg xmlns="http://www.w3.org/2000/svg" preserveAspectRatio="xMidYMid" width="14.031" height="14" viewBox="0 0 14.031 14"><defs><style>.cls-1{fill:#818181;fill-rule:evenodd}</style></defs><path d="M8.423 2.934a.942.942 0 0 0-1.331 0l-.333.333-4.658 4.654.001.001-.147.147S1.487 8.54.43 11.945l-.022.072-.057.186-.052.169-.044.145-.102.342c-.076.257-.261.837-.051 1.047.202.202.789.024 1.046-.052l.34-.101.151-.046.16-.049.196-.06.057-.018c3.246-1.009 3.829-1.482 3.877-1.525l.001-.001.003-.003.151-.15.01.01 4.658-4.655.333-.332a.94.94 0 0 0 0-1.33l-2.662-2.66zM5.398 11.45l-.016.01-.011.007-.013.008-.012.007c-.155.093-.61.332-1.714.73-.129.047-.269.097-.417.147l-1.569-1.567c.051-.148.101-.289.148-.419.399-1.107.638-1.562.73-1.717l.006-.01.009-.015.007-.01.01-.016.115-.114 2.844 2.841-.117.118zm8.349-8.516L11.085.275a.942.942 0 0 0-1.331 0L9.088.94a.94.94 0 0 0 0 1.329l2.663 2.66a.942.942 0 0 0 1.331 0l.665-.665a.94.94 0 0 0 0-1.33z" class="cls-1"/></svg>

<svg xmlns="http://www.w3.org/2000/svg" xmlns:xlink="http://www.w3.org/1999/xlink" preserveAspectRatio="xMidYMid" width="14.031" height="14" viewBox="0 0 14.031 14">
  <defs>
    <style>
      .cls-1 {
        fill: #818181;
        fill-rule: evenodd;
      }
    </style>
  </defs>
  <path d="M8.423,2.934 C8.055,2.567 7.460,2.567 7.092,2.934 L6.759,3.267 L2.101,7.921 L2.102,7.922 L1.955,8.069 C1.955,8.069 1.487,8.540 0.430,11.945 C0.423,11.969 0.415,11.993 0.408,12.017 C0.389,12.078 0.370,12.140 0.351,12.203 C0.334,12.258 0.317,12.315 0.299,12.372 C0.285,12.420 0.270,12.468 0.255,12.517 C0.222,12.628 0.188,12.742 0.153,12.859 C0.077,13.116 -0.108,13.696 0.102,13.906 C0.304,14.108 0.891,13.930 1.148,13.854 C1.265,13.820 1.377,13.786 1.488,13.753 C1.540,13.737 1.589,13.722 1.639,13.707 C1.693,13.691 1.747,13.674 1.799,13.658 C1.865,13.638 1.931,13.618 1.995,13.598 C2.014,13.592 2.033,13.586 2.052,13.580 C5.298,12.571 5.881,12.098 5.929,12.055 C5.930,12.054 5.930,12.054 5.930,12.054 C5.932,12.052 5.933,12.051 5.933,12.051 L6.084,11.901 L6.094,11.911 L10.752,7.256 L10.752,7.256 L11.085,6.924 C11.453,6.557 11.453,5.961 11.085,5.594 L8.423,2.934 ZM5.398,11.450 C5.393,11.452 5.388,11.456 5.382,11.460 C5.379,11.462 5.375,11.464 5.371,11.467 C5.367,11.469 5.363,11.472 5.358,11.475 C5.354,11.477 5.350,11.480 5.346,11.482 C5.191,11.575 4.736,11.814 3.632,12.212 C3.503,12.259 3.363,12.309 3.215,12.359 L1.646,10.792 C1.697,10.644 1.747,10.503 1.794,10.373 C2.193,9.266 2.432,8.811 2.524,8.656 C2.526,8.653 2.528,8.650 2.530,8.646 C2.533,8.641 2.536,8.636 2.539,8.631 C2.541,8.628 2.544,8.624 2.546,8.621 C2.550,8.615 2.553,8.610 2.556,8.605 L2.671,8.491 L5.515,11.332 L5.398,11.450 ZM13.747,2.934 L11.085,0.275 C10.717,-0.092 10.122,-0.092 9.754,0.275 L9.088,0.940 C8.721,1.307 8.721,1.902 9.088,2.269 L11.751,4.929 C12.118,5.296 12.714,5.296 13.082,4.929 L13.747,4.264 C14.115,3.897 14.115,3.302 13.747,2.934 Z" class="cls-1"/>
</svg>
